app/dist/common/images/lkq.svg

<svg height="18" width="18" xmlns="http://www.w3.org/2000/svg"><path d="m0 0h18v18h-18z" fill="#005595"/><g fill="#fff"><path d="m15.91 11.332c-.521-.073-.824-.191-1.192-.497a3.64 3.64 0 0 1 -1.211.187c-1.549 0-2.515-.806-2.515-2 0-.828.506-1.582 1.514-1.888.33-.101.698-.134 1.055-.134.29 0 .589.016.871.082 1.069.244 1.678 1.055 1.678 1.903 0 .314-.102.713-.282.994-.062.094-.143.188-.218.277.252.139.446.24.759.261l-.46.815zm-2.364-3.382c-.765 0-1.027.558-1.027 1.071 0 .538.231 1.04 1.014 1.04.759 0 1.041-.547 1.041-1.064 0-.53-.241-1.047-1.028-1.047z"/><path d="m9.519 11-1.129-1.588-.89.654v.934h-1.5v-4h1.5v1.519l1.738-1.519h1.966l-1.773 1.523 1.904 2.477h-1.815zm-7.519 0v-4h1.5v3h2.21v1z"/></g></svg>

<!-- by TradingView --><svg width="18" height="18" xmlns="http://www.w3.org/2000/svg"><path fill="#005595" d="M0 0h18v18H0z"/><path d="M15.91 11.332c-.521-.073-.824-.191-1.192-.497a3.64 3.64 0 01-1.211.187c-1.549 0-2.515-.806-2.515-2 0-.828.506-1.582 1.514-1.888.33-.101.698-.134 1.055-.134.29 0 .589.016.871.082 1.069.244 1.678 1.055 1.678 1.903 0 .314-.102.713-.282.994-.062.094-.143.188-.218.277.252.139.446.24.759.261l-.46.815zM13.546 7.95c-.765 0-1.027.558-1.027 1.071 0 .538.231 1.04 1.014 1.04.759 0 1.041-.547 1.041-1.064 0-.53-.241-1.047-1.028-1.047z" fill="#fff"/><path d="M9.519 11L8.39 9.412l-.89.654V11H6V7h1.5v1.519L9.238 7h1.966L9.431 8.523 11.335 11H9.52zM2 11V7h1.5v3h2.21v1H2z" fill="#fff"/></svg>
